images/plr.svg

<svg height="250" viewBox="0 0 250 250" width="250" xmlns="http://www.w3.org/2000/svg"><path d="m250 125c0 69.035156-55.964844 125-125 125s-125-55.964844-125-125 55.964844-125 125-125 125 55.964844 125 125" fill="#00bfff" fill-rule="evenodd"/><g fill="#fff"><path d="m77.085938 154.136719h-.585938v24.308593h-13.925781v-82.3125h13.632812v3.785157h.527344c4.757813-4.484375 10.816406-4.605469 14.207031-4.605469 14.234375 0 23.585938 13.367188 23.585938 31.222656v2.316406c0 18.582032-10.816406 29.65625-23.824219 29.65625-6.089844 0-10.613281-1.371093-13.617187-4.371093zm24.507812-24.191407v-4.054687c0-11.625-4.488281-19.417969-12.519531-19.417969-8.671875 0-13.308594 9.050782-13.308594 19.402344v4.027344c0 9.886718 4.578125 17.445312 13.546875 17.445312 7.050781 0 12.28125-5.425781 12.28125-17.402344zm0 0"/><path d="m121.488281 71.441406h13.925781v86.28125h-13.925781zm0 0"/><path d="m174.933594 109.097656c-7.851563 0-15.636719 6.128906-15.636719 13.875v34.796875h-13.929687v-61.695312h12.894531v3.789062h.527343c3.136719-3.242187 10.800782-4.765625 17.097657-4.6875.625.007813.113281.015625.714843.015625l.066407 13.882813zm0 0"/><path d="m169.058594 142.941406h13.929687v14.773438h-13.929687zm0 0"/></g></svg>

<svg xmlns="http://www.w3.org/2000/svg" xmlns:xlink="http://www.w3.org/1999/xlink" width="250px" height="250px" viewBox="0 0 250 250" version="1.1">
<g id="surface1">
<path style=" stroke:none;fill-rule:evenodd;fill:rgb(0%,74.901962%,100%);fill-opacity:1;" d="M 250 125 C 250 194.035156 194.035156 250 125 250 C 55.964844 250 0 194.035156 0 125 C 0 55.964844 55.964844 0 125 0 C 194.035156 0 250 55.964844 250 125 "/>
<path style=" stroke:none;fill-rule:nonzero;fill:rgb(100%,100%,100%);fill-opacity:1;" d="M 77.085938 154.136719 L 76.5 154.136719 L 76.5 178.445312 L 62.574219 178.445312 L 62.574219 96.132812 L 76.207031 96.132812 L 76.207031 99.917969 L 76.734375 99.917969 C 81.492188 95.433594 87.550781 95.3125 90.941406 95.3125 C 105.175781 95.3125 114.527344 108.679688 114.527344 126.535156 L 114.527344 128.851562 C 114.527344 147.433594 103.710938 158.507812 90.703125 158.507812 C 84.613281 158.507812 80.089844 157.136719 77.085938 154.136719 Z M 101.59375 129.945312 L 101.59375 125.890625 C 101.59375 114.265625 97.105469 106.472656 89.074219 106.472656 C 80.402344 106.472656 75.765625 115.523438 75.765625 125.875 L 75.765625 129.902344 C 75.765625 139.789062 80.34375 147.347656 89.3125 147.347656 C 96.363281 147.347656 101.59375 141.921875 101.59375 129.945312 Z M 101.59375 129.945312 "/>
<path style=" stroke:none;fill-rule:nonzero;fill:rgb(100%,100%,100%);fill-opacity:1;" d="M 121.488281 71.441406 L 135.414062 71.441406 L 135.414062 157.722656 L 121.488281 157.722656 Z M 121.488281 71.441406 "/>
<path style=" stroke:none;fill-rule:nonzero;fill:rgb(100%,100%,100%);fill-opacity:1;" d="M 174.933594 109.097656 C 167.082031 109.097656 159.296875 115.226562 159.296875 122.972656 C 159.296875 128.25 159.296875 157.769531 159.296875 157.769531 L 145.367188 157.769531 L 145.367188 96.074219 L 158.261719 96.074219 L 158.261719 99.863281 L 158.789062 99.863281 C 161.925781 96.621094 169.589844 95.097656 175.886719 95.175781 C 176.511719 95.183594 176 95.191406 176.601562 95.191406 L 176.667969 109.074219 Z M 174.933594 109.097656 "/>
<path style=" stroke:none;fill-rule:nonzero;fill:rgb(100%,100%,100%);fill-opacity:1;" d="M 169.058594 142.941406 L 182.988281 142.941406 L 182.988281 157.714844 L 169.058594 157.714844 Z M 169.058594 142.941406 "/>
</g>
</svg>
